lib/healthicons/icons/solid/symbols/cannabis.svg

<svg fill="none" height="48" viewBox="0 0 48 48" width="48" xmlns="http://www.w3.org/2000/svg"><path d="m24.0001 5.02246.4296.72151c1.9471 3.26998 3.0704 7.12733 3.0704 11.25583 0 .9684-.0618 1.9219-.1816 2.8565.5949-.8366 1.2662-1.6336 2.0143-2.3817 2.6669-2.6669 5.9551-4.3583 9.4439-5.0857l.7473-.1558-.1558.7474c-.7273 3.4887-2.4187 6.7769-5.0856 9.4439-.796.7959-1.6473 1.505-2.5428 2.1275.4162-.0344.8365-.0519 1.2603-.0519 3.4172 0 6.6027 1.137 9.2942 3.0957l.5555.4043-.5555.4043c-2.6915 1.9587-5.877 3.0957-9.2942 3.0957-1.471 0-2.8991-.2107-4.2633-.6069.2508.333.4835.684.6964 1.0526 1.1581 2.0059 1.5692 4.2599 1.3321 6.4988l-.0723.6833-.6279-.279c-2.0575-.9141-3.804-2.3972-4.9621-4.4031-.0349-.0606-.0693-.1214-.1029-.1825v6.7368h-2v-6.7368c-.0336.0611-.0679.1219-.1029.1825-1.1581 2.0059-2.9045 3.489-4.962 4.4031l-.6279.279-.0724-.6833c-.2371-2.2389.1741-4.4929 1.3322-6.4988.2128-.3686.4455-.7196.6964-1.0526-1.3643.3962-2.7924.6069-4.2634.6069-3.4172 0-6.6027-1.137-9.29419-3.0957l-.55552-.4043.55552-.4043c2.69149-1.9587 5.87699-3.0957 9.29419-3.0957.4239 0 .8441.0175 1.2603.0519-.8954-.6225-1.7467-1.3316-2.5427-2.1275-2.6669-2.667-4.35835-5.9552-5.08568-9.4439l-.1558-.7474.74732.1558c3.48876.7274 6.77696 2.4188 9.44386 5.0857.7481.7481 1.4195 1.5451 2.0143 2.3817-.1198-.9346-.1816-1.8881-.1816-2.8565 0-4.1285 1.1234-7.98585 3.0704-11.25583z" fill="#333"/></svg>

<svg width="48" height="48" viewBox="0 0 48 48" fill="none" xmlns="http://www.w3.org/2000/svg">
<path d="M24.0001 5.02246L24.4297 5.74397C26.3768 9.01395 27.5001 12.8713 27.5001 16.9998C27.5001 17.9682 27.4383 18.9217 27.3185 19.8563C27.9134 19.0197 28.5847 18.2227 29.3328 17.4746C31.9997 14.8077 35.2879 13.1163 38.7767 12.3889L39.524 12.2331L39.3682 12.9805C38.6409 16.4692 36.9495 19.7574 34.2826 22.4244C33.4866 23.2203 32.6353 23.9294 31.7398 24.5519C32.156 24.5175 32.5763 24.5 33.0001 24.5C36.4173 24.5 39.6028 25.637 42.2943 27.5957L42.8498 28L42.2943 28.4043C39.6028 30.363 36.4173 31.5 33.0001 31.5C31.5291 31.5 30.101 31.2893 28.7368 30.8931C28.9876 31.2261 29.2203 31.5771 29.4332 31.9457C30.5913 33.9516 31.0024 36.2056 30.7653 38.4445L30.693 39.1278L30.0651 38.8488C28.0076 37.9347 26.2611 36.4516 25.103 34.4457C25.0681 34.3851 25.0337 34.3243 25.0001 34.2632V41H23.0001V34.2632C22.9665 34.3243 22.9322 34.3851 22.8972 34.4457C21.7391 36.4516 19.9927 37.9347 17.9352 38.8488L17.3073 39.1278L17.2349 38.4445C16.9978 36.2056 17.409 33.9516 18.5671 31.9457C18.7799 31.5771 19.0126 31.2261 19.2635 30.8931C17.8992 31.2893 16.4711 31.5 15.0001 31.5C11.5829 31.5 8.3974 30.363 5.70591 28.4043L5.15039 28L5.70591 27.5957C8.3974 25.637 11.5829 24.5 15.0001 24.5C15.424 24.5 15.8442 24.5175 16.2604 24.5519C15.365 23.9294 14.5137 23.2203 13.7177 22.4244C11.0508 19.7574 9.35935 16.4692 8.63202 12.9805L8.47622 12.2331L9.22354 12.3889C12.7123 13.1163 16.0005 14.8077 18.6674 17.4746C19.4155 18.2227 20.0869 19.0197 20.6817 19.8563C20.5619 18.9217 20.5001 17.9682 20.5001 16.9998C20.5001 12.8713 21.6235 9.01395 23.5705 5.74397L24.0001 5.02246Z" fill="#333333"/>
</svg>
